assets/svg/subscriptions.svg

<svg xmlns="http://www.w3.org/2000/svg" width="800" height="800" viewBox="0 0 24 24">
    <path
        d="M14 6a7 7 0 0 0-1 .08 4.49 4.49 0 0 0-9 .42V7a2 2 0 0 0-2 2v9a1.94 1.94 0 0 0 2 2h4.73A8 8 0 1 0 14 6m-8 .5a2.51 2.51 0 0 1 5-.24V7H6ZM14 20a6 6 0 1 1 6-6 6 6 0 0 1-6 6m-1.5-8v1h4a1 1 0 0 1 1 1v3a1 1 0 0 1-1 1H15v1h-2v-1h-2.5v-2h5v-1h-4a1 1 0 0 1-1-1v-3a1 1 0 0 1 1-1H13V9h2v1h2.5v2Z" />
    <path fill="none" d="M0 0h24v24H0z" />
</svg>

<?xml version="1.0" encoding="utf-8"?><!-- Uploaded to: SVG Repo, www.svgrepo.com, Generator: SVG Repo Mixer Tools -->
<svg width="800px" height="800px" viewBox="0 0 24 24" xmlns="http://www.w3.org/2000/svg"><path d="M14,6a7.17,7.17,0,0,0-1,.08A4.49,4.49,0,0,0,4,6.5V7A2,2,0,0,0,2,9v9a1.94,1.94,0,0,0,2,2H8.73A8,8,0,1,0,14,6ZM6,6.5a2.51,2.51,0,0,1,5-.24V7H6ZM14,20a6,6,0,1,1,6-6A6,6,0,0,1,14,20Zm-1.5-8v1h4a1,1,0,0,1,1,1v3a1,1,0,0,1-1,1H15v1H13V18H10.5V16h5V15h-4a1,1,0,0,1-1-1V11a1,1,0,0,1,1-1H13V9h2v1h2.5v2Z"/><rect width="24" height="24" fill="none"/></svg>
